X:1
T:Title
%%score 1 { 2 | 3 }
L:1/8
M:3/4
K:D
V:1 treble nm="Grand Piano, Unnamed-000"
V:2 bass nm="Choir Pad, Unnamed-001"
V:3 bass 
V:1
 D2 [DF]2 [DE]2 | D2 [DA]4 | [DB]>[DA] [DF]2 [DE]2 | D2 [DF]2 [CE]2- | [CE] z [CE]2 [DF]2 | %5
w: By~James~McGranaham,~1878 * *|||||
 [DF]2 [EA]2 [Fd]2- | [Fd][Ge] [Fd]2 [Ec]2 | [^Gd]2 [GB]2 [AB]2 | A4 z [GA] | [FA]2 [GB]2 [Gc]2 | %10
w: |||||
 [Fd]4 [Ec]>[Fd] | [Ge]3 [Fd] [Ge]2 | [Af]2 [Fd]2 [Ad]>[Ad] | [Bd]3 [Ac] [GB]2 | [FA]2 d2 [Gc]2 | %15
w: |||||
 [Fd]6 | [FA]4 [DF]2 | [DF]2 [CG]2 [DA]2 | [DB]4 [DB]2 | [Gd]4 [Gd]>[Gd] | [Bd]2 [Ac]2 [GB]2 | %21
w: ||||||
 [FA]4 [Ec]>[Ec] | [Fd]2 [Fd]2 [Gc]>[Gc] | [Fd]2 [Fd]2 [Ae]>[Ae] | [Af]2 [Fd]2 [Gc]2 | %25
w: ||||
 [Fd]4 [DF]>[DF] | [DA]2 [EG]2 [CE]2 | D6- | D2 z2 z2 |] %29
w: ||||
V:2
 F,2 A,2 G,2 | F,2 F,4 | F,>F, A,2 G,2 | F,2 A,2 A,2- | A, z A,2 A,2 | A,2 A,2 B,2- | %6
 B,A, A,2 A,2 | B,2[K:treble] D2 D2 | C4 z C | D2 D2[K:bass] A,2 | A,4 A,>A, | C3[K:treble] D C2 | %12
 D2 D2 D>D | D3 D D2 | D2[K:bass] B,2 A,2 | A,6 | D4 A,2 | A,2 A,2 A,2 | D4 D2 | B,4 B,>B, | %20
 B,2[K:treble] C2 D2 | D4 A,>A, | A,2 A,2 A,>A, | A,2 A,2[K:treble] C>C | D2 A,2 A,2 | A,4 A,>A, | %26
 F,2 A,2 G,2 | F,6- | F,2 z2 z2 |] %29
V:3
 D,2 D,2 D,2 | D,2 D,4 | D,>D, D,2 D,2 | D,2 A,,2 A,,2- | A,, z A,,2 D,2 | D,2 C,2 B,,2- | %6
 B,,C, D,2 E,2 | E,2 E,2 A,,2 | A,,4 z A,, | A,2 G,2 E,2 | D,4 E,>D, | A,,3 A,, A,,2 | %12
 D,2 D,2 F,>F, | G,3 G, G,2 | A,2 z2 A,,2 | D,6 | D,4 D,2 | D,2 E,2 F,2 | G,4 G,2 | G,4 G,>G, | %20
 G,2 G,2 G,2 | D,4 z2 | D,2 D,2 A,,>A,, | D,2 D,2 A,>A, | D,2 D,2 A,,2 | D,4 D,>D, | %26
 A,,2 A,,2 A,,2 | D,6- | D,2 z2 z2 |] %29

